X:3
T:Wohlfahrt 3  (Op.45 No. 3)
C:Franz Wohlfahrt
L:1/16
Q:1/4=70
M:2/4
I:linebreak $
K:G
"C" edcB ABcA |"G" dcBA GABG |"D7" cBAG FDEF |"G" GBdg bagf |"C" edcB ABcA |"G" dcBA GABG | 
"D" FEDC"G" B,DGB |"D" cdef"G" gBcd |"C" egfg agfe |"G" dBGB dgfg |"C" egfg agfe |"G" dBGB dBed || 
"D" cAdc"G" BGcB |"D" AGFE Dded |"D" cAdc"G" BGcB |"D" AGFE DCB,A, ||"G" G,A,B,C DEFG | 
"D" ABcd eABc | edcB cdef | agdB GBcd ||"C" edcB ABcA |"G" dcBA GABG |"D" cBAG FDEF | 
"G" GBdg bBcd |"C" edcB ABcA |"G" dcBA GABG |"D" FEDC"G" B,DGB |"D" cdef"G" gbag | 
"D" fedc"G" BGFE |"D" DCB,A,"G" G,4 |] 



